X: 30655
T: Oor Pal Davy
R: waltz
M: 3/4
K: Dmajor
A,3|D2 D2 d2|c6|A,<D D2 B2|A F4 F|G2 E3 {FE}D|C {CB,}A,4 A,|B,2 G,2 F2|E3 EFG|
[1 F2 D2 dc|{d}c4-c d|d2 D2 B2|A F4-F|G6|E6|D6-|D3:|
[2 F2 D2 dc|{d}c4 cd|d2 D2 B2|A F4 F|G2 {GF}E3 D|C A,4 G,|G,2 G2 F2|D3 A,DE||
F2 A,2 G2|E4 {A}GE|D2 C3 A,|G, A,3 GF|E2 C2 dc|{d}c2 A2 EF|G2 F3 D|D3 A,DE|
F2 A,2 G2|{F}E2 A3 G|F2 D2 CA,|G, A,3 EF|G2 E3 D|C A,4 G,|G,2 G2 F2||
F2 A,2 G,2|E6|{FE}D2 C3 A,|G, A,2 A,DE|G2 E2 C2|E2 D2 C2|D6-|D3 A,DE|
F2 A,2 G,@|E6|{FE}D2 C3 A,|G, A,2 A,DE|G2 E2 C2|E2 D2 C2|D6-|D3 A,3||
D2 D2 d2|c6|A,<D D2 B2|AF4 F|G2 E3 D|C A,4 A,|B,2 G,2 F2|E3 EFG|
F2 D2 dc|{d}c4 cd|d2 D2 B2|A F4-F|G2E3D|C A,4 G,|G,2 G2 F2|D3 A,DE||
F2 F2 G2|E4 GE|D2 C3 A,|G, A,3 GF|E2 C2 dc|c2 A2 EF|G2 F3 D|D3 A,DE|
F2 A,2 G2|{F}E2 A3 G|F2 D2 CA,|G, A,3 EF|G2 E3 D|C A,4 G,|G,2 G2 F2||
D2 D2 d2|c6|A,<D D2 B2|AF-F4|G6|E6|D6-|D6||

